content/assets/logo/medium.svg

<svg viewBox="0 0 60 60" xmlns="http://www.w3.org/2000/svg"><path d="m53 18.5h-1.2c-1.6 0-2.1.7-2.1 2.2v20.3c0 1.2.5 1.6 1.4 1.6h1.9v5.5h-16.4v-5.5h3.3v-21.9l-8.6 27.4h-4.8l-8.5-27.4v21.9h2.2v5.5h-13.2v-5.5h1.1c1.6 0 2.2-1.5 2.2-2.2v-19.7c0-1.1-1-2.2-2.2-2.2h-1.1v-6.6h17l6 20.2 6-20.2h17z"/></svg>

<?xml version="1.0" encoding="utf-8"?>
<!-- Generator: Adobe Illustrator 22.1.0, SVG Export Plug-In . SVG Version: 6.00 Build 0)  -->
<svg version="1.1" id="Layer_1" xmlns="http://www.w3.org/2000/svg" xmlns:xlink="http://www.w3.org/1999/xlink" x="0px" y="0px"
	 viewBox="0 0 60 60" style="enable-background:new 0 0 60 60;" xml:space="preserve">
<g id="surface1">
	<path d="M53,18.5h-1.2c-1.6,0-2.1,0.7-2.1,2.2V41c0,1.2,0.5,1.6,1.4,1.6H53v5.5H36.6v-5.5h3.3V20.7l-8.6,27.4h-4.8L18,20.7v21.9
		h2.2v5.5H7v-5.5h1.1c1.6,0,2.2-1.5,2.2-2.2V20.7c0-1.1-1-2.2-2.2-2.2H7l0-6.6H24l6,20.2l6-20.2h17V18.5z"/>
</g>
</svg>
